X: 1
T: Denis Murphy's
M: 6/8
L: 1/8
R: jig
K: Dmaj
F2D DAF|GED D2A,|DFA DGE|FDD D2E|
~F3 ~G3|~A3 (3Bcd e|dcA GEA|1DED D2E:|2DED D2B||
|=c2A AGF|G3 GFG|A2B =cAG|Adc d2e|
fed cAG|FAF GED|dcA GEA|1DED D2B:|2DED D2E:||
